src/assets/icons/home.svg

<svg width="14" height="14" viewBox="0 0 14 14" fill="none" xmlns="http://www.w3.org/2000/svg">
<g id="home">
<g clip-path="url(#clip0_156_4640)">
<path id="Vector" fill-rule="evenodd" clip-rule="evenodd" d="M6.63996 0.920048C6.85329 0.760049 7.14662 0.760049 7.35995 0.920048L12.1544 4.51585L12.1648 4.52365L13.7599 5.72002C14.025 5.91885 14.0787 6.29492 13.8799 6.56002C13.6811 6.82511 13.305 6.87884 13.0399 6.68002L12.3999 6.20002V12.6C12.3999 12.9314 12.1313 13.2 11.7999 13.2H8.59995H5.39996H2.19998C1.86861 13.2 1.59998 12.9314 1.59998 12.6V6.20002L0.959985 6.68002C0.694889 6.87884 0.31881 6.82511 0.119989 6.56002C-0.0788326 6.29492 -0.025107 5.91885 0.239988 5.72002L1.83512 4.52367L1.84557 4.51584L6.63996 0.920048ZM5.99996 12H7.99995V7.60001H5.99996V12ZM9.19994 12V7.00002C9.19994 6.66865 8.93132 6.40002 8.59995 6.40002H5.39996C5.06859 6.40002 4.79997 6.66865 4.79997 7.00002V12H2.79998V5.30003L6.99995 2.15004L11.1999 5.30003V12H9.19994Z" fill="black"/>
</g>
</g>
<defs>
<clipPath id="clip0_156_4640">
<rect width="14" height="14" fill="white"/>
</clipPath>
</defs>
</svg>

<svg xmlns="http://www.w3.org/2000/svg" fill="none" viewBox="0 0 14 14"><g clip-path="url(#a)"><path fill="#000" fill-rule="evenodd" d="M6.64.92a.6.6 0 0 1 .72 0l4.794 3.596.01.008L13.76 5.72a.6.6 0 0 1-.72.96l-.64-.48v6.4a.6.6 0 0 1-.6.6H2.2a.6.6 0 0 1-.6-.6V6.2l-.64.48a.6.6 0 0 1-.72-.96l1.595-1.196.01-.008zM6 12h2V7.6H6zm3.2 0V7a.6.6 0 0 0-.6-.6H5.4a.6.6 0 0 0-.6.6v5h-2V5.3L7 2.15l4.2 3.15V12z" clip-rule="evenodd"/></g><defs><clipPath id="a"><path fill="#fff" d="M0 0h14v14H0z"/></clipPath></defs></svg>
